X: 10712
M: C|
L: 1/8
K: G
u(GA) |\
|: u(Bc) |\
d2B2 g2(Bc) | d2d2 d2(Bc) | d2B2 g2(fg) | a2A2 A2(GA) |\


